svg/black/btdx.svg

<svg height="32" viewBox="0 0 32 32" width="32" xmlns="http://www.w3.org/2000/svg"><g fill="none"><circle cx="16" cy="16" fill="#000" r="16"/><g fill="#fff" transform="translate(3 3)"><path d="m12.9615222 1.94038055c-6.08773784 0-11.02114165 4.93340381-11.02114165 11.02114165 0 6.0877378 4.93340381 11.0238901 11.02114165 11.0238901 6.0877378 0 11.0238901-4.9361523 11.0238901-11.0238901 0-6.08773784-4.9361523-11.02114165-11.0238901-11.02114165zm.0357294 1.74524313c3.0260042 0 5.4775898 2.45158562 5.4775898 5.47758985 0 .66236787-.1181818 1.29999997-.3353065 1.88816067-.2006343-.032981-.4067653-.0522199-.6183933-.0522199-.7887949 0-1.5171247.2556026-2.1080338.6843552.6623679-.6348837 1.07463-1.5281184 1.07463-2.51754755 0-1.9293869-1.5638477-3.49323468-3.4932346-3.49598309-1.8084567 0-3.29534887 1.3769556-3.4739958 3.13868922-.34080338-.06046512-.68985201-.09344609-1.04989429-.09344609-.31881607 0-.63213531.02473573-.9372093.07420719.192389-2.85010571 2.56427059-5.1038055 5.46384779-5.1038055zm2.0145877 10.29281182-1.9376321-1.1598308c-.1291755-.0769557-.2885835-.0769557-.417759.0027484l-1.7012685 1.0498943c-.1346723.0824524-.2088795.239112-.1868922.3957716.0192389.145666.0274842.2940804.0192389.4479916-.0604651 1.1983086-1.04714585 2.1657505-2.24820293 2.2014799-1.31649049.0412262-2.39936575-1.0169133-2.39661734-2.3251586.00274842-1.2615222 1.02790698-2.3031712 2.28668076-2.3224101.70359408-.0109937 1.3384778.2913319 1.77272731.7778012.1236786.1401692.3298097.1704017.4919661.0797041l1.638055-.9179704c.1264271-.0714588.2061311-.2061311.2061311-.3517971v-.0989429c0-.1731501-.112685-.3270613-.2775899-.3820296-.9234672-.3078224-1.5913319-1.1790698-1.5913319-2.20697674 0-1.32198732 1.1021142-2.38287526 2.4350951-2.32241015 1.1653277.05496829 2.1245244.98668076 2.2069768 2.15200846.0824524 1.15433403-.6788584 2.14651163-1.7315011 2.41860463-.1786469.0467231-.3078224.2033827-.3078224.3902749v.0164904c0 .1401692.0742072.2693447.192389.3435518l1.7205074 1.0581396c.1704017.1071881.3957717.0687103.5221988-.0879493.4369978-.544186 1.1131078-.8877378 1.8689217-.8712473 1.220296.0274841 2.2234673 1.0169133 2.2646935 2.2454545.046723 1.3604651-1.0773785 2.4735729-2.4433404 2.4048626-1.1515856-.0577167-2.0970402-.9701903-2.1959831-2.1190275-.0137421-.1484144-.0109936-.2913319.0027484-.4342495.0164905-.1566596-.0604651-.305074-.192389-.384778zm-6.54672302 6.0327696c-2.99577167 0-5.42262157-2.4268499-5.42262157-5.4226216s2.4268499-5.42262155 5.42262157-5.42262155c.35454545 0 .70084567.03298097 1.03615222.09894291.02748414.95095134.43424947 1.80570824 1.07463 2.42135304-.59090907-.431501-1.31923888-.6871036-2.10803381-.6871036-1.98160676 0-3.58942917 1.6078224-3.58942917 3.5894292s1.60782241 3.5894292 3.58942917 3.5894292c1.51162791 0 2.80338271-.9344609 3.33107821-2.2591966.1704017.7448203.4864694 1.4346723.9124736 2.0420718-.994926 1.2505286-2.5257928 2.0503172-4.24630022 2.0503172zm9.05602532 0c-2.872093 0-5.2219873-2.2317125-5.4116279-5.0543341.2885836.0439747.5854123.065962.8849895.065962.3270613 0 .6458773-.0247357.9564482-.0769556.1786469 1.8139535 1.7095137 3.2321353 3.5701902 3.2321353 1.9816068 0 3.5894292-1.6078224 3.5894292-3.5894292 0-1.638055-1.0966173-3.0205074-2.5972516-3.44926.2033827-.5661734.3215645-1.17632139.338055-1.80845669 2.3498943.59090909 4.092389 2.72093019 4.092389 5.25771669 0 2.9957717-2.4268499 5.4226216-5.4226216 5.4226216z"/><path d="m13 0c-7.17885835 0-13 5.82114165-13 13 0 7.1788584 5.82114165 13 13 13 7.1788584 0 13-5.8211416 13-13 0-7.17885835-5.8211416-13-13-13zm-.0384778 25.0215645c-6.65940804 0-12.05729387-5.3978859-12.05729387-12.0572939 0-6.65940802 5.39788583-12.05729386 12.05729387-12.05729386 6.659408 0 12.0572939 5.39788584 12.0572939 12.05729386 0 6.659408-5.3978859 12.0572939-12.0572939 12.0572939z"/></g></g></svg>

<?xml version="1.0" encoding="UTF-8"?>
<svg width="32px" height="32px" viewBox="0 0 32 32" version="1.1" xmlns="http://www.w3.org/2000/svg" xmlns:xlink="http://www.w3.org/1999/xlink">
    <!-- Generator: Sketch 50 (54983) - http://www.bohemiancoding.com/sketch -->
    <title>black/btdx</title>
    <desc>Created with Sketch.</desc>
    <defs></defs>
    <g id="black/btdx" stroke="none" stroke-width="1" fill="none" fill-rule="evenodd">
        <circle id="Combined-Shape" fill="#000000" fill-rule="nonzero" cx="16" cy="16" r="16"></circle>
        <g id="BitCloud-(BTDX)" transform="translate(3.000000, 3.000000)" fill="#FFFFFF" fill-rule="nonzero">
            <path d="M12.9615222,1.94038055 C6.87378436,1.94038055 1.94038055,6.87378436 1.94038055,12.9615222 C1.94038055,19.04926 6.87378436,23.9854123 12.9615222,23.9854123 C19.04926,23.9854123 23.9854123,19.04926 23.9854123,12.9615222 C23.9854123,6.87378436 19.04926,1.94038055 12.9615222,1.94038055 Z M12.9972516,3.68562368 C16.0232558,3.68562368 18.4748414,6.1372093 18.4748414,9.16321353 C18.4748414,9.8255814 18.3566596,10.4632135 18.1395349,11.0513742 C17.9389006,11.0183932 17.7327696,10.9991543 17.5211416,10.9991543 C16.7323467,10.9991543 16.0040169,11.2547569 15.4131078,11.6835095 C16.0754757,11.0486258 16.4877378,10.1553911 16.4877378,9.16596195 C16.4877378,7.23657505 14.9238901,5.67272727 12.9945032,5.66997886 C11.1860465,5.66997886 9.69915433,7.04693446 9.5205074,8.80866808 C9.17970402,8.74820296 8.83065539,8.71522199 8.47061311,8.71522199 C8.15179704,8.71522199 7.8384778,8.73995772 7.53340381,8.78942918 C7.72579281,5.93932347 10.0976744,3.68562368 12.9972516,3.68562368 Z M15.0118393,13.9784355 L13.0742072,12.8186047 C12.9450317,12.741649 12.7856237,12.741649 12.6564482,12.8213531 L10.9551797,13.8712474 C10.8205074,13.9536998 10.7463002,14.1103594 10.7682875,14.267019 C10.7875264,14.412685 10.7957717,14.5610994 10.7875264,14.7150106 C10.7270613,15.9133192 9.74038055,16.8807611 8.53932347,16.9164905 C7.22283298,16.9577167 6.13995772,15.8995772 6.14270613,14.5913319 C6.14545455,13.3298097 7.17061311,12.2881607 8.42938689,12.2689218 C9.13298097,12.2579281 9.76786469,12.5602537 10.2021142,13.046723 C10.3257928,13.1868922 10.5319239,13.2171247 10.6940803,13.1264271 L12.3321353,12.2084567 C12.4585624,12.1369979 12.5382664,12.0023256 12.5382664,11.8566596 L12.5382664,11.7577167 C12.5382664,11.5845666 12.4255814,11.4306554 12.2606765,11.3756871 C11.3372093,11.0678647 10.6693446,10.1966173 10.6693446,9.16871036 C10.6693446,7.84672304 11.7714588,6.7858351 13.1044397,6.84630021 C14.2697674,6.9012685 15.2289641,7.83298097 15.3114165,8.99830867 C15.3938689,10.1526427 14.6325581,11.1448203 13.5799154,11.4169133 C13.4012685,11.4636364 13.272093,11.620296 13.272093,11.8071882 L13.272093,11.8236786 C13.272093,11.9638478 13.3463002,12.0930233 13.464482,12.1672304 L15.1849894,13.22537 C15.3553911,13.3325581 15.5807611,13.2940803 15.7071882,13.1374207 C16.144186,12.5932347 16.820296,12.2496829 17.5761099,12.2661734 C18.7964059,12.2936575 19.7995772,13.2830867 19.8408034,14.5116279 C19.8875264,15.872093 18.7634249,16.9852008 17.397463,16.9164905 C16.2458774,16.8587738 15.3004228,15.9463002 15.2014799,14.797463 C15.1877378,14.6490486 15.1904863,14.5061311 15.2042283,14.3632135 C15.2207188,14.2065539 15.1437632,14.0581395 15.0118393,13.9784355 Z M8.46511628,20.0112051 C5.46934461,20.0112051 3.04249471,17.5843552 3.04249471,14.5885835 C3.04249471,11.5928118 5.46934461,9.16596195 8.46511628,9.16596195 C8.81966173,9.16596195 9.16596195,9.19894292 9.5012685,9.26490486 C9.52875264,10.2158562 9.93551797,11.0706131 10.5758985,11.6862579 C9.98498943,11.2547569 9.25665962,10.9991543 8.46786469,10.9991543 C6.48625793,10.9991543 4.87843552,12.6069767 4.87843552,14.5885835 C4.87843552,16.5701903 6.48625793,18.1780127 8.46786469,18.1780127 C9.9794926,18.1780127 11.2712474,17.2435518 11.7989429,15.9188161 C11.9693446,16.6636364 12.2854123,17.3534884 12.7114165,17.9608879 C11.7164905,19.2114165 10.1856237,20.0112051 8.46511628,20.0112051 Z M17.5211416,20.0112051 C14.6490486,20.0112051 12.2991543,17.7794926 12.1095137,14.956871 C12.3980973,15.0008457 12.694926,15.022833 12.9945032,15.022833 C13.3215645,15.022833 13.6403805,14.9980973 13.9509514,14.9458774 C14.1295983,16.7598309 15.6604651,18.1780127 17.5211416,18.1780127 C19.5027484,18.1780127 21.1105708,16.5701903 21.1105708,14.5885835 C21.1105708,12.9505285 20.0139535,11.5680761 18.5133192,11.1393235 C18.7167019,10.5731501 18.8348837,9.96300211 18.8513742,9.33086681 C21.2012685,9.9217759 22.9437632,12.051797 22.9437632,14.5885835 C22.9437632,17.5843552 20.5169133,20.0112051 17.5211416,20.0112051 Z" id="Shape"></path>
            <path d="M13,0 C5.82114165,0 0,5.82114165 0,13 C0,20.1788584 5.82114165,26 13,26 C20.1788584,26 26,20.1788584 26,13 C26,5.82114165 20.1788584,0 13,0 Z M12.9615222,25.0215645 C6.30211416,25.0215645 0.90422833,19.6236786 0.90422833,12.9642706 C0.90422833,6.30486258 6.30211416,0.906976744 12.9615222,0.906976744 C19.6209302,0.906976744 25.0188161,6.30486258 25.0188161,12.9642706 C25.0188161,19.6236786 19.6209302,25.0215645 12.9615222,25.0215645 Z" id="Shape"></path>
        </g>
    </g>
</svg>
